flaticon/essential/cloud-computing-5.svg

<svg xmlns="http://www.w3.org/2000/svg" width="32" height="32" viewBox="0 0 24 24">
    <path d="M 20.390625 8.675781 C 20.179688 5.078125 17.210938 2.199219 13.632812 2.199219 C 11.460938 2.199219 9.359375 3.265625 8.054688 5.003906 C 8.027344 4.988281 7.992188 4.976562 7.964844 4.960938 C 7.886719 4.925781 7.804688 4.886719 7.722656 4.855469 C 7.675781 4.835938 7.628906 4.820312 7.582031 4.804688 C 7.503906 4.777344 7.421875 4.75 7.339844 4.730469 C 7.292969 4.714844 7.246094 4.703125 7.195312 4.691406 C 7.109375 4.671875 7.019531 4.65625 6.929688 4.644531 C 6.886719 4.636719 6.84375 4.628906 6.804688 4.625 C 6.671875 4.609375 6.535156 4.601562 6.398438 4.601562 C 4.414062 4.601562 2.800781 6.214844 2.800781 8.199219 C 2.800781 8.25 2.804688 8.300781 2.804688 8.351562 C 1.144531 9.257812 0 11.160156 0 13.0625 C 0 15.894531 2.304688 18.199219 5.136719 18.199219 L 7.644531 18.199219 L 5.539062 21.800781 L 18.460938 21.800781 L 16.355469 18.199219 L 19.1875 18.199219 C 21.839844 18.199219 24 16.042969 24 13.390625 C 24 11.191406 22.46875 9.222656 20.390625 8.675781 Z M 17.066406 21 L 6.933594 21 L 8.570312 18.199219 L 12 12.335938 L 15.429688 18.199219 Z M 19.1875 17.398438 L 15.890625 17.398438 L 12 10.75 L 8.109375 17.398438 L 5.136719 17.398438 C 2.746094 17.398438 0.800781 15.453125 0.800781 13.0625 C 0.800781 11.398438 1.882812 9.675781 3.371094 8.960938 L 3.601562 8.851562 L 3.601562 8.601562 C 3.601562 8.550781 3.601562 8.5 3.605469 8.449219 L 3.609375 8.378906 L 3.605469 8.300781 C 3.601562 8.265625 3.601562 8.234375 3.601562 8.199219 C 3.601562 6.65625 4.855469 5.398438 6.398438 5.398438 C 6.523438 5.398438 6.644531 5.410156 6.765625 5.425781 C 6.796875 5.429688 6.828125 5.4375 6.859375 5.441406 C 6.96875 5.457031 7.074219 5.480469 7.175781 5.511719 C 7.191406 5.515625 7.203125 5.519531 7.21875 5.523438 C 7.332031 5.558594 7.445312 5.601562 7.550781 5.652344 C 7.582031 5.664062 7.609375 5.675781 7.636719 5.691406 C 7.730469 5.738281 7.828125 5.789062 7.917969 5.851562 C 8.6875 6.347656 9.199219 7.214844 9.199219 8.199219 C 9.199219 8.421875 9.378906 8.601562 9.601562 8.601562 C 9.820312 8.601562 10 8.421875 10 8.199219 C 10 7.097656 9.5 6.113281 8.71875 5.453125 C 9.867188 3.953125 11.753906 3 13.632812 3 C 16.730469 3 19.304688 5.453125 19.574219 8.554688 C 19.164062 8.527344 18.550781 8.511719 17.941406 8.605469 C 17.722656 8.636719 17.570312 8.84375 17.605469 9.058594 C 17.632812 9.257812 17.804688 9.402344 18 9.402344 C 18.019531 9.402344 18.039062 9.398438 18.058594 9.394531 C 18.953125 9.261719 19.878906 9.386719 19.933594 9.394531 C 21.796875 9.75 23.199219 11.464844 23.199219 13.390625 C 23.199219 15.601562 21.402344 17.398438 19.1875 17.398438 Z M 19.1875 17.398438"/>
    <path d="M12 14.199219C11.777344 14.199219 11.601562 14.378906 11.601562 14.601562L11.601562 17.800781C11.601562 18.019531 11.777344 18.199219 12 18.199219 12.222656 18.199219 12.398438 18.019531 12.398438 17.800781L12.398438 14.601562C12.398438 14.378906 12.222656 14.199219 12 14.199219zM12 19C11.777344 19 11.601562 19.179688 11.601562 19.398438L11.601562 19.800781C11.601562 20.019531 11.777344 20.199219 12 20.199219 12.222656 20.199219 12.398438 20.019531 12.398438 19.800781L12.398438 19.398438C12.398438 19.179688 12.222656 19 12 19zM12 19"/>
</svg>

<svg xmlns="http://www.w3.org/2000/svg" width="32" height="32" viewBox="0 0 24 24">
    <path d="M20.39 8.676c-.21-3.598-3.18-6.477-6.757-6.477-2.172 0-4.274 1.067-5.578 2.805-.028-.016-.063-.027-.09-.043-.078-.035-.16-.074-.242-.106a2.028 2.028 0 0 0-.141-.05 2.484 2.484 0 0 0-.242-.075 1.56 1.56 0 0 0-.145-.039 2.898 2.898 0 0 0-.265-.046c-.043-.008-.086-.016-.125-.02A3.6 3.6 0 0 0 2.8 8.199c0 .051.004.102.004.153C1.145 9.258 0 11.16 0 13.062A5.143 5.143 0 0 0 5.137 18.2h2.508l-2.106 3.602h12.922l-2.106-3.602h2.832A4.816 4.816 0 0 0 24 13.391c0-2.2-1.531-4.168-3.61-4.715zM17.067 21H6.934l1.636-2.8L12 12.335l3.43 5.863zm2.122-3.602H15.89L12 10.75l-3.89 6.648H5.136A4.341 4.341 0 0 1 .8 13.063c0-1.665 1.082-3.387 2.57-4.102l.23-.11v-.25c0-.05 0-.101.004-.152l.004-.07-.004-.078c-.003-.035-.003-.067-.003-.102 0-1.543 1.253-2.8 2.796-2.8.125 0 .247.011.368.027l.093.015c.11.016.215.04.317.07a2.434 2.434 0 0 1 .375.14 2.254 2.254 0 0 1 .367.2A2.792 2.792 0 0 1 9.199 8.2a.401.401 0 0 0 .8 0c.001-1.101-.499-2.086-1.28-2.746C9.867 3.953 11.754 3 13.633 3c3.097 0 5.672 2.453 5.941 5.555a7.7 7.7 0 0 0-1.633.05.397.397 0 0 0-.336.454.4.4 0 0 0 .395.343c.02 0 .04-.004.059-.007.894-.133 1.82-.008 1.875 0 1.863.355 3.265 2.07 3.265 3.996a4.012 4.012 0 0 1-4.012 4.007zm0 0"/>
    <path d="M12 14.2a.398.398 0 0 0-.398.402V17.8a.398.398 0 1 0 .796 0v-3.2A.398.398 0 0 0 12 14.2zm0 0M12 19a.398.398 0 0 0-.398.398v.403a.398.398 0 1 0 .796 0v-.403A.398.398 0 0 0 12 19zm0 0"/>
</svg>
